X:1
T:Union (Billings), LM
T:Union (Billings), LM
T:William Billings, 1788, arr. L. Marshall, 1886
T:Public Domain Courtesy of the Cyber Hymnal™
C:William Billings, 1788, arr. L. Marshall, 1886
Z:Public Domain
Z:Courtesy of the Cyber Hymnal™
%%score ( 1 2 ) ( 3 4 )
L:1/8
Q:1/4=135
M:2/2
K:Eb
V:1 treble 
V:2 treble 
V:3 bass 
V:4 bass 
V:1
 [EG]4 | [Ec]4 [Gc]2 [Gd]2 | [Ge]4 [Gd]2 [^Fc]2 | [Gd]6 [Gd]2 | [Ge]4 [Gd]2 [Gc]2 | %5
 [Ad]4 [Gc]2 [F=B]2 | [Ec]6 [EG]2 | (E3 F) [B,E]2 [B,G]2 | ([DB]3 [Ec]) [DB]2 [FA]2 | [EG]6 [FG]2 | %10
 ([Ec]2 [F=B]2) [Gc]2 [Ad]2 | [Ge]4 [Gd]2 [Fd]2 | [Ec]4 |] %13
V:2
 x4 | x8 | x8 | x8 | x8 | x8 | x8 | B,4 x4 | x8 | x8 | x8 | x8 | x4 |] %13
V:3
 [C,C]4 | [C,G,]4 [E,G,]2 [G,=B,]2 | C4 [G,=B,]2 [A,C]2 | [G,=B,]6 [G,B,]2 | %4
 [C,C]4 [D,=B,]2 [E,C]2 | [F,C]4 [G,E]2 [G,D]2 | [C,C]6 [C,C]2 | (G,3 A,) [E,G,]2 E,2 | %8
 [B,,F,]4 [B,,F,]2 [D,B,]2 | [E,B,]6 [D,=B,]2 | ([C,C]2 [D,G,]2) [E,C]2 [F,C]2 | %11
 [G,D]4 [G,,=B,]2 [G,,B,]2 | [C,C]4 |] %13
V:4
 x4 | x8 | C4 x4 | x8 | x8 | x8 | x8 | E,4 E,2 x2 | x8 | x8 | x8 | x8 | x4 |] %13

